lib/svgs/lightning.svg

<svg xmlns="http://www.w3.org/2000/svg" viewBox="0 0 20 20">
    <path fill="#000" fill-rule="evenodd" d="M6.54747686,1.44214542 L4.02147686,10.7051454 C3.91739354,11.0868255 4.20472225,11.463 4.60033948,11.463 C4.60033948,11.463 8.9459342,11.2185346 8.88326668,11.4690931 C8.38426753,13.4642013 7.38626923,17.4544176 7.38626923,17.4544176 C7.23154053,18.073057 8.02102101,18.4740024 8.42926851,17.9841151 L16.8502685,7.87911513 C17.1759375,7.48832004 16.8980448,6.895 16.3893395,6.895 L12.1303178,6.90348039 L13.5982612,1.76480683 C13.7077523,1.38152295 13.4199556,1 13.0213395,1 L7.12633948,1 C6.85576274,1 6.61866316,1.18110082 6.54747686,1.44214542 L6.54747686,1.44214542 Z M10.7604177,7.33019317 C10.6509266,7.71347705 10.9387233,8.095 11.3373395,8.095 L15.1065628,8.09708254 L9.1968266,15.1610658 L10.2354097,11.0085824 C10.3301277,10.6298791 10.0437081,10.263 9.65333948,10.263 L5.38587403,10.2629757 L7.59558105,2.2 L12.2575073,2.2 L10.7604177,7.33019317 L10.7604177,7.33019317 L10.7604177,7.33019317 Z"/>
</svg>

<svg xmlns="http://www.w3.org/2000/svg" viewBox="0 0 20 20">
    <path fill="#000" fill-rule="evenodd" d="M6.547 1.442l-2.526 9.263a.6.6 0 0 0 .58.758s4.345-.244 4.282.006l-1.497 5.985c-.154.62.635 1.02 1.043.53L16.85 7.88a.6.6 0 0 0-.46-.984l-4.26.008 1.468-5.138A.6.6 0 0 0 13.021 1H7.126a.6.6 0 0 0-.579.442M10.76 7.33a.6.6 0 0 0 .577.765l3.77.002-5.91 7.064 1.038-4.152a.6.6 0 0 0-.582-.746H5.386L7.596 2.2h4.662L10.76 7.33"/>
</svg>
